X:2
T:Smash The Windows
S:John Moore's Book 3
Z:Transcribed by Steve Mansfield 05/2021
%%VWML: Moore1-4495-p2-0
F:https://www.vwml.org/record/Moore3/4495/p2
M:6/8
L:1/8
K:D
D2D F2A | d2f ecA | G2B F2A | D2F GFE | 
D2D F2A | d2f ecA | dfe ABc | d2f d3 :| 
|: a2A A2A | f2g agf | g2A A2A | f2g agf | 
e2d g2e | a2f b2a | gfe ABc | d2f d3 :| 

